img/svg_icons/note.svg

<svg width="19" height="25" viewBox="0 0 19 25" fill="none" xmlns="http://www.w3.org/2000/svg">
<path fill-rule="evenodd" clip-rule="evenodd" d="M17.042 0.0351039L6.982 2.29479C6.442 2.41615 6 2.96979 6 3.52544V5.01484H5.984V17.5971C5.984 18.1457 5.546 18.6943 5.012 18.8167L2.251 19.4436C1.013 19.7254 0 20.9972 0 22.2709V22.4946C0 23.8787 1.118 25 2.498 25H3.459C5.37 25 6.919 23.4474 6.919 21.5307V12.845H6.936V11.9594V8.91037C6.936 8.47208 7.286 8.0418 7.714 7.95555L16.861 6.09705C17.219 6.02483 17.554 6.29864 17.554 6.66573V14.5912C17.554 15.1398 17.117 15.6874 16.582 15.8078L13.737 16.4467C12.507 16.7225 11.5 17.9842 11.5 19.249V19.4807C11.5 20.8698 12.623 21.9951 14.007 21.9951H15.005C16.936 21.9951 18.5 20.4265 18.5 18.4917V2.00694H18.498V1.20657C18.498 0.491455 18.005 0 17.351 0C17.252 0 17.148 0.0120356 17.042 0.0351039Z" fill="white"/>
</svg>

<svg width="19" height="25" fill="none" xmlns="http://www.w3.org/2000/svg"><path fill-rule="evenodd" clip-rule="evenodd" d="M17.042.035l-10.06 2.26C6.442 2.416 6 2.97 6 3.525v1.49h-.016v12.582c0 .549-.438 1.097-.972 1.22l-2.761.627C1.013 19.725 0 20.997 0 22.27v.224A2.501 2.501 0 002.498 25h.961a3.464 3.464 0 003.46-3.47v-8.685h.017V8.91c0-.438.35-.868.778-.954l9.147-1.859a.579.579 0 01.693.569v7.925c0 .549-.437 1.096-.972 1.217l-2.845.639c-1.23.276-2.237 1.537-2.237 2.802v.232a2.51 2.51 0 002.507 2.514h.998a3.499 3.499 0 003.495-3.503V2.007h-.002v-.8C18.498.49 18.005 0 17.351 0a1.46 1.46 0 00-.309.035z" fill="#fff"/></svg>
